X: 1
T: Aggie Whyte's
M: 4/4
L: 1/8
R: reel
K: Gmaj
|: BGAF DG G2 | ABcA defg | afge f2 fe | dfed cAdc |
BGAF DG G2 | ABcA defg | afge f2 fe |1 dcAF G3 A :|2 dcAF G3 B ||
|: defg a2 fa | gfde dcAc | defg ad d2 | adfa gagf |
defg abag | fgec dcAG | FDFG Adfe |1 dcAF G3 A :|2 dcAF G4 ||
